svg/other/axe_fill.svg

<?xml version="1.0" encoding="UTF-8"?>
<svg width="24px" height="24px" viewBox="0 0 24 24" version="1.1" xmlns="http://www.w3.org/2000/svg" xmlns:xlink="http://www.w3.org/1999/xlink">
    <title>axe_fill</title>
    <g id="Icon" stroke="none" stroke-width="1" fill="none" fill-rule="evenodd">
        <g id="Other" transform="translate(-624.000000, -48.000000)" fill-rule="nonzero">
            <g id="axe_fill" transform="translate(624.000000, 48.000000)">
                <path d="M24,0 L24,24 L0,24 L0,0 L24,0 Z M12.5935,23.2578 L12.5819,23.2595 L12.5109,23.295 L12.4919,23.2987 L12.4767,23.295 L12.4057,23.2595 C12.3958,23.2564 12.387,23.259 12.3821,23.2649 L12.378,23.2758 L12.3609,23.7031 L12.3659,23.7235 L12.3769,23.7357 L12.4805,23.8097 L12.4953,23.8136 L12.5071,23.8097 L12.6107,23.7357 L12.6233,23.7197 L12.6267,23.7031 L12.6096,23.2758 C12.6076,23.2657 12.601,23.2593 12.5935,23.2578 Z M12.8584,23.1453 L12.8445,23.1473 L12.6598,23.2397 L12.6499,23.2499 L12.6472,23.2611 L12.6651,23.6906 L12.6699,23.7034 L12.6784,23.7105 L12.8793,23.8032 C12.8914,23.8069 12.9022,23.803 12.9078,23.7952 L12.9118,23.7812 L12.8777,23.1665 C12.8753,23.1546 12.8674,23.147 12.8584,23.1453 Z M12.143,23.1473 C12.1332,23.1424 12.1222,23.1453 12.1156,23.1526 L12.1099,23.1665 L12.0758,23.7812 C12.0751,23.7927 12.0828,23.8019 12.0926,23.8046 L12.1083,23.8032 L12.3092,23.7105 L12.3186,23.7024 L12.3225,23.6906 L12.3404,23.2611 L12.3372,23.2485 L12.3278,23.2397 L12.143,23.1473 Z" id="MingCute"></path>
                <path d="M7.5547,2.16795 C7.32637,2.01573 7.04552,1.96403 6.77795,2.02497 C6.32597,2.1279 6.11588,2.50025 5.93656,2.8869 C5.82736,3.12236 5.68707,3.45897 5.54847,3.88775 C5.27126,4.74537 5,5.97449 5,7.49999758 C5,9.02552 5.27126,10.2546 5.54847,11.1123 C5.68707,11.541 5.82736,11.8777 5.93656,12.1131 C6.12518,12.5198 6.23994,12.8525 6.77795,12.975 C7.04552,13.036 7.32637,12.9843 7.5547,12.8321 C8.46819,12.2231 9.65168,11.7932 11,11.502 L11,20.9999976 C11,21.5523 11.4477,21.9999976 12,21.9999976 L15,21.9999976 C15.5523,21.9999976 16,21.5523 16,20.9999976 L16,10.9841 C16.6649,10.9687 17.3219,10.9686 17.9579,10.9777 C19.0702,10.9937 20,10.1014 20,8.97147 L20,6.02854 C20,4.89858 19.0702,4.00633 17.9579,4.02228 C16.1328,4.04845 14.1353,3.9991 12.273,3.72644 C10.3965,3.45171 8.74601,2.96216 7.5547,2.16795 Z" id="路径" fill="#09244B"></path>
            </g>
        </g>
    </g>
</svg>

<svg xmlns="http://www.w3.org/2000/svg" width="24" height="24"><g fill="none" fill-rule="nonzero"><path d="M24 0v24H0V0h24ZM12.594 23.258l-.012.002-.071.035-.02.004-.014-.004-.071-.036c-.01-.003-.019 0-.024.006l-.004.01-.017.428.005.02.01.013.104.074.015.004.012-.004.104-.074.012-.016.004-.017-.017-.427c-.002-.01-.009-.017-.016-.018Zm.264-.113-.014.002-.184.093-.01.01-.003.011.018.43.005.012.008.008.201.092c.012.004.023 0 .029-.008l.004-.014-.034-.614c-.003-.012-.01-.02-.02-.022Zm-.715.002a.023.023 0 0 0-.027.006l-.006.014-.034.614c0 .012.007.02.017.024l.015-.002.201-.093.01-.008.003-.011.018-.43-.003-.012-.01-.01-.184-.092Z"/><path fill="#09244B" d="M7.555 2.168a1 1 0 0 0-.777-.143c-.452.103-.662.475-.841.862a8.89 8.89 0 0 0-.389 1A11.768 11.768 0 0 0 5 7.5c0 1.526.271 2.755.548 3.612.14.429.28.766.389 1.001.188.407.303.74.84.862a1 1 0 0 0 .778-.143c.913-.609 2.097-1.039 3.445-1.33V21a1 1 0 0 0 1 1h3a1 1 0 0 0 1-1V10.984a52.356 52.356 0 0 1 1.958-.006A2.01 2.01 0 0 0 20 8.97V6.03a2.01 2.01 0 0 0-2.042-2.007c-1.825.026-3.823-.023-5.685-.296-1.876-.274-3.527-.764-4.718-1.558Z"/></g></svg>
